src/assets/img/providers-white/onlyplay.svg

<svg width="112" height="22" viewBox="0 0 112 22" fill="none" xmlns="http://www.w3.org/2000/svg">
<g clip-path="url(#clip0_4134_9737)">
<path d="M20.0138 10.3917C19.581 10.9615 18.7094 11.107 17.399 10.8281C17.6563 8.12558 16.7775 5.93881 14.7626 4.26777C12.3679 2.28416 8.92 2.16515 6.30164 3.79531C4.14732 5.13695 3.00885 7.26361 2.88623 10.1753C2.16011 10.4759 1.31257 10.5528 0.343606 10.4061C0.276863 9.19978 0.433357 7.99062 0.805244 6.83924C1.45638 4.82505 2.7386 3.07371 4.46229 1.84416C5.57418 1.05292 6.8381 0.501093 8.17408 0.223593C9.51005 -0.0539079 10.889 -0.0510345 12.2236 0.232031C13.6724 0.539061 15.0333 1.16909 16.2048 2.07518C17.3762 2.98126 18.3281 4.14003 18.9895 5.46515C19.753 6.99219 20.106 8.69003 20.0138 10.3917Z" fill="white"/>
<path d="M56.5338 8.01137L53.3023 8.11236L53.2915 2.6917C53.2915 2.5787 53.348 2.5222 53.461 2.5222H56.3643C56.4102 2.5222 56.4542 2.54043 56.4867 2.5729C56.5191 2.60536 56.5374 2.6494 56.5374 2.69531L56.5338 8.01137Z" fill="white"/>
<path d="M86.1003 9.9481L82.8833 9.87597L82.8652 2.6917C82.8652 2.57629 82.9217 2.51859 83.0348 2.51859L85.938 2.5222C85.9839 2.5222 86.028 2.54043 86.0604 2.5729C86.0929 2.60536 86.1111 2.6494 86.1111 2.69531L86.1003 9.9481Z" fill="white"/>
<path d="M39.1754 9.78219C38.62 9.83268 38.192 9.88318 37.8915 9.93367C37.395 10.02 36.8912 10.0562 36.3875 10.0419C36.3274 10.0419 36.1748 9.94449 35.9295 9.74973C35.0351 5.99651 32.9012 5.18984 29.5279 7.32973C28.5156 7.71684 27.3098 7.82744 25.9105 7.66154C26.229 6.80993 26.717 6.03007 27.3456 5.36825C27.9742 4.70642 28.7306 4.17611 29.5699 3.80878C30.4091 3.44145 31.3142 3.2446 32.2313 3.22989C33.1485 3.21519 34.059 3.38293 34.9089 3.72318C36.1366 4.21575 37.1933 5.05039 37.9506 6.12587C38.7079 7.20135 39.1334 8.47147 39.1754 9.78219Z" fill="white"/>
<path d="M81.4046 12.5989L80.3911 12.7071C80.2781 12.7191 80.1735 12.6963 80.0774 12.6386C79.9764 12.5809 79.855 12.5592 79.7131 12.5737C79.124 12.6386 78.5614 12.5977 78.0252 12.451C78.5302 10.9435 78.0577 9.35662 76.4925 8.84449C75.7399 8.59924 75.045 8.75312 74.4079 9.30613C73.5014 10.0948 73.3067 11.1972 73.8236 12.6133C72.7609 12.9283 71.6044 12.9992 70.3541 12.8261L70.3361 6.44974C70.3361 6.22132 70.4491 6.10711 70.6751 6.10711L73.2682 6.11433C73.4894 6.11433 73.5988 6.22613 73.5964 6.44974L73.582 7.22154C73.5796 7.43312 73.6517 7.46077 73.7984 7.30449C74.8395 6.18886 76.1595 5.78613 77.7584 6.09629C80.7085 6.66252 81.9095 9.92646 81.4046 12.5989Z" fill="white"/>
<path d="M51.1997 11.5819L47.997 11.6071C48.1702 9.4023 47.2589 8.47662 45.2633 8.83006C44.8882 8.89498 44.5023 9.21717 44.1056 9.79662L40.7479 9.77498L40.7046 6.46416C40.6998 6.24056 40.8092 6.12875 41.0328 6.12875L43.6295 6.13236C43.8603 6.13236 43.9757 6.24657 43.9757 6.47498L43.9829 7.1999C43.9829 7.41148 44.0551 7.43913 44.1993 7.28285C46.2046 5.11892 50.2295 5.79334 51.0085 8.94547C51.2273 9.82788 51.291 10.7067 51.1997 11.5819Z" fill="white"/>
<path d="M98.8315 12.3573L95.5675 12.1409C95.9931 9.71006 94.1321 7.85629 91.7554 9.36744C91.4885 9.58143 91.1663 9.69323 90.7888 9.70285C90.6686 9.70525 90.5604 9.67159 90.4643 9.60187C90.2791 9.46482 90.1276 9.49487 90.0098 9.69203C89.9449 9.80023 89.8704 9.80744 89.7862 9.71367C89.5939 9.49968 89.3631 9.41433 89.0938 9.4576C88.6802 9.52493 88.3087 9.53214 87.9793 9.47924C88.4386 7.89476 89.3186 6.84646 90.6193 6.33433C92.3433 5.65629 93.9458 5.96526 95.4269 7.26121C95.588 7.40066 95.6613 7.3634 95.6469 7.14941L95.5964 6.45334C95.5934 6.41192 95.5989 6.37032 95.6127 6.3312C95.6264 6.29208 95.648 6.25628 95.6762 6.22609C95.7044 6.1959 95.7384 6.17198 95.7762 6.15584C95.814 6.13971 95.8547 6.13171 95.8957 6.13236H98.5646C98.7617 6.13236 98.8603 6.23094 98.8603 6.4281L98.8315 12.3573Z" fill="white"/>
<path d="M62.4846 10.0058L59.2206 10.3124L57.4823 6.22252C57.4781 6.21253 57.4764 6.20165 57.4775 6.19086C57.4786 6.18007 57.4823 6.16972 57.4884 6.16075C57.4945 6.15179 57.5028 6.14449 57.5124 6.13953C57.522 6.13457 57.5328 6.13211 57.5436 6.13236H60.9951C61.0456 6.13476 61.0804 6.15881 61.0997 6.20449L62.4846 10.0058Z" fill="white"/>
<path d="M67.1262 11.4124C66.0082 11.6648 64.9431 11.7069 63.9308 11.5386L65.8495 6.23334C65.8609 6.20193 65.8817 6.1749 65.9089 6.15612C65.9361 6.13734 65.9683 6.12776 66.001 6.12875L69.3046 6.13236C69.3623 6.13476 69.3791 6.16121 69.3551 6.2117L67.1262 11.4124Z" fill="white"/>
<path d="M104.313 8.59924L100.988 8.92383L99.917 6.51465C99.8016 6.25979 99.8846 6.13236 100.166 6.13236L102.954 6.12875C103.288 6.12875 103.509 6.28624 103.617 6.60121L104.313 8.59924Z" fill="white"/>
<path d="M109.759 10.7488C109.435 10.465 109.129 10.3689 108.843 10.4602C108.761 10.4885 108.672 10.4948 108.587 10.4783C108.311 10.423 108.049 10.4242 107.801 10.4819C107.669 10.5107 107.539 10.5035 107.411 10.4602L106.755 10.2402L108.212 6.2081C108.229 6.1576 108.265 6.13236 108.32 6.13236H111.631C111.643 6.13276 111.655 6.13595 111.665 6.14164C111.675 6.14733 111.684 6.15535 111.691 6.16499C111.697 6.17463 111.701 6.18558 111.702 6.19687C111.703 6.20817 111.701 6.21946 111.696 6.22974L109.759 10.7488Z" fill="white"/>
<path d="M13.3128 10.8858L11.3761 10.9976C11.2558 11.0024 11.1428 10.9784 11.037 10.9255C10.8832 10.8485 10.7521 10.8173 10.6439 10.8317C9.48262 10.9808 8.27442 10.9627 7.01934 10.7776C6.88476 10.3089 6.85618 9.8162 6.93567 9.33506C7.01515 8.85392 7.20072 8.39642 7.47894 7.99566C7.75716 7.59489 8.12107 7.26091 8.54433 7.01786C8.96759 6.77482 9.43961 6.62881 9.92623 6.59039C10.6775 6.53211 11.4263 6.73461 12.0469 7.16383C12.631 7.56481 13.0698 8.14385 13.2979 8.81459C13.5261 9.48533 13.5313 10.2119 13.3128 10.8858Z" fill="white"/>
<path d="M29.5279 7.32973C28.5589 9.23159 28.5733 10.976 29.5711 12.5628C29.3692 13.3298 28.7969 13.4597 27.8544 12.9524C27.7631 12.9019 27.7017 12.9163 27.6705 12.9956C27.6392 13.0726 27.5827 13.1171 27.501 13.1291L26.3577 13.313C25.8749 12.4592 25.585 11.5118 25.5078 10.5362C25.4306 9.56057 25.568 8.57984 25.9105 7.66154C27.3098 7.82744 28.5156 7.71684 29.5279 7.32973Z" fill="white"/>
<path d="M56.5338 8.01137L56.5374 11.9497L53.3023 11.874V8.11236L56.5338 8.01137Z" fill="white"/>
<path d="M104.313 8.59924L105.63 12.1517C105.772 12.5292 105.912 12.5292 106.052 12.1517L106.755 10.2402L107.411 10.4602C107.539 10.5035 107.669 10.5107 107.801 10.4819C108.049 10.4242 108.311 10.423 108.587 10.4783C108.672 10.4948 108.761 10.4885 108.843 10.4602C109.129 10.3689 109.435 10.465 109.759 10.7488L108.234 14.3373C107.897 14.4335 107.588 14.4515 107.307 14.3914C107.026 14.3313 106.783 14.3697 106.578 14.5068C106.545 14.5308 106.506 14.5453 106.463 14.5501C106.391 14.5573 106.34 14.5284 106.311 14.4635C106.301 14.44 106.283 14.4202 106.26 14.4067C106.238 14.3932 106.212 14.3866 106.185 14.3878L103.34 14.5032L100.988 8.92383L104.313 8.59924Z" fill="white"/>
<path d="M91.7554 9.36744C90.8778 10.5504 90.7239 11.6384 91.2938 12.6314C91.7458 13.42 92.4142 13.8468 93.299 13.9117C94.3401 13.9886 95.0963 13.3984 95.5675 12.1409L98.8315 12.3573L98.8603 16.3786C98.8603 16.5685 98.7654 16.6635 98.5754 16.6635L95.8344 16.6671C95.6493 16.6671 95.5639 16.5757 95.5784 16.393L95.6397 15.6825C95.6685 15.3122 95.5591 15.2654 95.3115 15.5419C94.0636 16.934 91.9141 17.053 90.3308 16.2776C87.9685 15.1199 87.3085 11.8992 87.9793 9.47924C88.3087 9.53214 88.6802 9.52493 89.0938 9.4576C89.3631 9.41433 89.5939 9.49968 89.7862 9.71367C89.8704 9.80744 89.9449 9.80023 90.0098 9.69203C90.1276 9.49487 90.2791 9.46482 90.4643 9.60187C90.5604 9.67159 90.6686 9.70525 90.7888 9.70285C91.1663 9.69323 91.4885 9.58143 91.7554 9.36744Z" fill="white"/>
<path d="M35.9295 9.74973C36.1748 9.94449 36.3274 10.0419 36.3875 10.0419C36.8912 10.0562 37.395 10.02 37.8915 9.93367C38.192 9.88318 38.62 9.83268 39.1754 9.78219C39.2104 10.8772 38.9763 11.9646 38.4931 12.951C38.0099 13.9374 37.2921 14.7934 36.4013 15.4456C35.5105 16.0978 34.4732 16.5266 33.3784 16.6954C32.2836 16.8642 31.1641 16.7679 30.1157 16.4147C28.5203 15.8759 27.1819 14.7713 26.3577 13.313L27.501 13.1291C27.5827 13.1171 27.6392 13.0726 27.6705 12.9956C27.7017 12.9163 27.7631 12.9019 27.8544 12.9524C28.7969 13.4597 29.3692 13.3298 29.5711 12.5628C30.7349 13.7482 32.0116 14.1113 33.4013 13.652C34.2308 13.3779 34.856 12.8886 35.2767 12.1842C35.6903 11.4989 35.9079 10.6874 35.9295 9.74973Z" fill="white"/>
<path d="M40.7479 9.77498L44.1056 9.79662L44.019 16.3245C44.0181 16.4004 43.9872 16.4728 43.9332 16.5262C43.8792 16.5795 43.8064 16.6094 43.7305 16.6094L41.0111 16.613C40.8236 16.613 40.7298 16.5192 40.7298 16.3317L40.7479 9.77498Z" fill="white"/>
<path d="M86.1003 9.9481L86.1111 13.1147L82.8797 13.0209L82.8833 9.87597L86.1003 9.9481Z" fill="white"/>
<path d="M62.4846 10.0058L63.3213 12.2166C63.4536 12.5653 63.5798 12.5628 63.7 12.2094L63.9308 11.5386C64.9431 11.7069 66.0082 11.6648 67.1262 11.4124L62.8164 21.5468C62.802 21.578 62.7791 21.5937 62.7479 21.5937C61.6106 21.6682 60.4818 21.6598 59.3613 21.5684C59.3586 21.5688 59.3559 21.5684 59.3534 21.5673C59.3509 21.5662 59.3488 21.5644 59.3473 21.5621C59.3458 21.5599 59.3449 21.5572 59.3449 21.5545C59.3448 21.5518 59.3455 21.5491 59.3469 21.5468C60.1283 19.8301 60.8917 18.1338 61.6371 16.4579C61.6677 16.3898 61.6838 16.3158 61.6845 16.2407C61.6851 16.1656 61.6702 16.091 61.6407 16.0215L59.2206 10.3124L62.4846 10.0058Z" fill="white"/>
<path d="M2.88623 10.1753C3.1459 12.4282 4.04994 14.1798 5.59836 15.4301C10.0236 19.0006 16.3351 16.5373 17.399 10.8281C18.7094 11.107 19.581 10.9615 20.0138 10.3917C19.9285 11.9883 19.4557 13.5416 18.6361 14.9179C17.4874 16.8394 15.7194 18.3123 13.6229 19.0943C11.9628 19.7131 10.1668 19.8732 8.42403 19.5578C6.6812 19.2424 5.05597 18.463 3.71934 17.3019C2.28568 16.0565 1.24236 14.422 0.71508 12.5953C0.508969 11.8835 0.384344 11.1491 0.343606 10.4061C1.31257 10.5528 2.16011 10.4759 2.88623 10.1753Z" fill="white"/>
<path d="M7.01934 10.7776C8.27442 10.9627 9.48262 10.9808 10.6439 10.8317C10.7521 10.8173 10.8832 10.8485 11.037 10.9255C11.1428 10.9784 11.2558 11.0024 11.3761 10.9976L13.3128 10.8858C13.1481 11.3941 12.8621 11.8547 12.4795 12.2279C12.0968 12.6012 11.629 12.8758 11.1164 13.0281C10.6999 13.1515 10.2631 13.1911 9.83118 13.1446C9.39925 13.098 8.98074 12.9664 8.59982 12.7571C8.21891 12.5479 7.88313 12.2653 7.61186 11.9255C7.34059 11.5857 7.13921 11.1956 7.01934 10.7776Z" fill="white"/>
<path d="M51.1997 11.5819L51.1997 16.3569C51.1997 16.5397 51.1083 16.631 50.9256 16.631L48.2748 16.6166C48.1016 16.6142 48.0151 16.5265 48.0151 16.3533L47.997 11.6071L51.1997 11.5819Z" fill="white"/>
<path d="M56.5374 11.9497L56.5446 16.2956C56.5446 16.4904 56.4472 16.589 56.2525 16.5914H53.58C53.5044 16.5914 53.432 16.5617 53.3785 16.509C53.3251 16.4562 53.2951 16.3847 53.2951 16.3101L53.3023 11.874L56.5374 11.9497Z" fill="white"/>
<path d="M78.0252 12.451C78.5614 12.5977 79.124 12.6386 79.7131 12.5737C79.855 12.5592 79.9764 12.5809 80.0774 12.6386C80.1735 12.6963 80.2781 12.7191 80.3911 12.7071L81.4046 12.5989C80.979 14.8097 79.5652 16.4724 77.2426 16.7104C75.8313 16.8571 74.6904 16.4279 73.82 15.4228C73.6637 15.2425 73.5856 15.2714 73.5856 15.5094V21.453C73.5856 21.5732 73.5267 21.6333 73.4089 21.6333H70.52C70.4022 21.6333 70.3433 21.5732 70.3433 21.453L70.3541 12.8261C71.6044 12.9992 72.7609 12.9283 73.8236 12.6133C74.242 13.4645 74.9128 13.9033 75.8361 13.9297C76.8844 13.961 77.6141 13.4681 78.0252 12.451Z" fill="white"/>
<path d="M86.1111 13.1147L86.14 16.3425C86.14 16.4057 86.1149 16.4662 86.0703 16.5108C86.0256 16.5555 85.9651 16.5806 85.902 16.5806L83.1574 16.595C82.9602 16.595 82.8628 16.4964 82.8652 16.2992L82.8797 13.0209L86.1111 13.1147Z" fill="white"/>
<path d="M108.234 14.3373L105.161 21.536C105.137 21.5913 105.095 21.6189 105.035 21.6189L101.764 21.6297C101.752 21.6294 101.741 21.6263 101.731 21.6208C101.721 21.6153 101.713 21.6075 101.706 21.5982C101.7 21.5889 101.697 21.5783 101.696 21.5674C101.695 21.5565 101.697 21.5457 101.702 21.536L103.974 16.5409C104.03 16.4207 104.033 16.2992 103.985 16.1766L103.34 14.5032L106.185 14.3878C106.212 14.3866 106.238 14.3932 106.26 14.4067C106.283 14.4202 106.301 14.44 106.311 14.4635C106.34 14.5284 106.391 14.5573 106.463 14.5501C106.506 14.5453 106.545 14.5308 106.578 14.5068C106.783 14.3697 107.026 14.3313 107.307 14.3914C107.588 14.4515 107.897 14.4335 108.234 14.3373Z" fill="white"/>
</g>
<defs>
<clipPath id="clip0_4134_9737">
<rect width="111.443" height="22" fill="white" transform="translate(0.278687 0.000976562)"/>
</clipPath>
</defs>
</svg>

<svg width="112" height="22" fill="none" xmlns="http://www.w3.org/2000/svg"><g clip-path="url(#a)" fill="#fff"><path d="M20.014 10.392c-.433.57-1.305.715-2.615.436.257-2.702-.622-4.89-2.636-6.56-2.395-1.984-5.843-2.103-8.461-.473-2.155 1.342-3.293 3.469-3.416 6.38-.726.3-1.573.378-2.542.231a9.862 9.862 0 0 1 4.119-8.562 9.86 9.86 0 0 1 11.742.231 9.843 9.843 0 0 1 2.785 3.39 9.828 9.828 0 0 1 1.024 4.927ZM56.534 8.011l-3.232.101-.01-5.42c0-.113.056-.17.169-.17h2.903a.173.173 0 0 1 .173.173l-.003 5.316ZM86.1 9.948l-3.217-.072-.018-7.184c0-.116.057-.173.17-.173l2.903.003a.173.173 0 0 1 .173.173l-.01 7.253ZM39.175 9.782c-.555.05-.983.101-1.283.152-.497.086-1 .122-1.505.108-.06 0-.212-.098-.458-.292-.894-3.753-3.028-4.56-6.401-2.42-1.012.387-2.218.497-3.617.332a6.779 6.779 0 0 1 1.435-2.294 6.861 6.861 0 0 1 2.224-1.56 6.915 6.915 0 0 1 5.339-.085 6.827 6.827 0 0 1 3.042 2.403 6.723 6.723 0 0 1 1.224 3.656ZM81.405 12.599l-1.014.108a.493.493 0 0 1-.314-.068.596.596 0 0 0-.364-.065 4.482 4.482 0 0 1-1.688-.123c.505-1.508.033-3.094-1.532-3.607-.753-.245-1.448-.09-2.085.462-.907.789-1.101 1.891-.584 3.307-1.063.315-2.22.386-3.47.213l-.018-6.376c0-.229.113-.343.34-.343l2.592.007c.221 0 .33.112.328.336l-.014.772c-.002.211.07.239.216.082 1.041-1.115 2.361-1.518 3.96-1.208 2.95.567 4.151 3.83 3.647 6.503ZM51.2 11.582l-3.203.025c.173-2.205-.738-3.13-2.734-2.777-.375.065-.76.387-1.157.967l-3.358-.022-.043-3.31c-.005-.224.104-.336.328-.336l2.596.003c.231 0 .347.115.347.343l.007.725c0 .211.072.24.216.083 2.006-2.164 6.03-1.49 6.81 1.662a7.6 7.6 0 0 1 .19 2.637ZM98.832 12.357l-3.264-.216c.425-2.43-1.436-4.285-3.813-2.774-.266.214-.589.326-.966.336a.52.52 0 0 1-.325-.101c-.185-.137-.336-.107-.454.09-.065.108-.14.115-.224.022-.192-.214-.423-.3-.692-.256a3.504 3.504 0 0 1-1.115.021c.46-1.584 1.34-2.633 2.64-3.145 1.724-.678 3.327-.369 4.808.927.161.14.234.102.22-.112l-.05-.696a.302.302 0 0 1 .18-.297.293.293 0 0 1 .119-.024h2.669c.197 0 .295.099.295.296l-.028 5.93ZM62.485 10.006l-3.264.306-1.739-4.09a.065.065 0 0 1 .062-.09h3.451a.11.11 0 0 1 .105.072l1.385 3.802ZM67.126 11.412c-1.118.253-2.183.295-3.195.127l1.919-5.306a.16.16 0 0 1 .059-.077A.154.154 0 0 1 66 6.13l3.304.003c.057.003.074.03.05.08l-2.229 5.2ZM104.313 8.6l-3.325.324-1.071-2.41c-.115-.254-.032-.382.249-.382l2.788-.003c.334 0 .555.157.663.472l.696 1.998ZM109.759 10.749c-.324-.284-.63-.38-.916-.289a.497.497 0 0 1-.256.018 1.84 1.84 0 0 0-.786.004.718.718 0 0 1-.39-.022l-.656-.22 1.457-4.032c.017-.05.053-.076.108-.076h3.311a.075.075 0 0 1 .06.033c.006.01.01.02.011.032a.062.062 0 0 1-.006.033l-1.937 4.519Z"/><path d="m13.313 10.886-1.937.112a.685.685 0 0 1-.339-.072c-.154-.078-.285-.109-.393-.094a13.22 13.22 0 0 1-3.625-.054 3.286 3.286 0 0 1 1.525-3.76 3.282 3.282 0 0 1 3.503.146 3.285 3.285 0 0 1 1.266 3.722ZM29.528 7.33c-.97 1.902-.955 3.646.043 5.233-.202.767-.774.897-1.717.39-.09-.051-.152-.037-.183.043a.204.204 0 0 1-.17.133l-1.143.184a6.717 6.717 0 0 1-.448-5.651c1.4.165 2.606.055 3.618-.332ZM56.534 8.011l.003 3.939-3.235-.076V8.112l3.232-.1ZM104.313 8.6l1.317 3.552c.142.377.282.377.422 0l.703-1.912.656.22c.128.043.258.05.39.022a1.84 1.84 0 0 1 .786-.004c.085.017.174.01.256-.018.286-.091.592.005.916.289l-1.525 3.588a1.905 1.905 0 0 1-.927.054c-.281-.06-.524-.021-.729.116a.238.238 0 0 1-.115.043c-.072.007-.123-.022-.152-.087a.132.132 0 0 0-.126-.076l-2.845.116-2.352-5.58 3.325-.324ZM91.755 9.367c-.877 1.183-1.031 2.271-.461 3.264.452.789 1.12 1.216 2.005 1.28 1.041.078 1.797-.513 2.268-1.77l3.265.216.028 4.022c0 .19-.095.284-.285.284l-2.74.004c-.186 0-.271-.091-.257-.274l.062-.71c.028-.37-.08-.418-.329-.141-1.247 1.392-3.397 1.511-4.98.736-2.362-1.158-3.023-4.379-2.352-6.799.33.053.701.046 1.115-.021.27-.044.5.042.692.256.084.093.159.086.224-.022.118-.197.27-.227.454-.09a.52.52 0 0 0 .325.1c.377-.009.7-.12.966-.335Z"/><path d="M35.93 9.75c.245.194.397.292.458.292a7.531 7.531 0 0 0 1.504-.108c.3-.05.728-.101 1.283-.152a6.714 6.714 0 0 1-.682 3.169 6.802 6.802 0 0 1-2.092 2.495 6.92 6.92 0 0 1-6.286.97 6.82 6.82 0 0 1-3.757-3.103l1.143-.184a.204.204 0 0 0 .17-.133c.03-.08.092-.094.183-.044.943.508 1.515.378 1.717-.39 1.164 1.186 2.44 1.55 3.83 1.09.83-.274 1.455-.763 1.876-1.468.413-.685.63-1.497.652-2.434ZM40.748 9.775l3.358.022-.087 6.527a.289.289 0 0 1-.288.285l-2.72.004c-.187 0-.281-.094-.281-.281l.018-6.557ZM86.1 9.948l.011 3.167-3.231-.094.003-3.145 3.217.072ZM62.485 10.006l.836 2.21c.133.35.259.347.379-.007l.23-.67c1.013.168 2.078.126 3.196-.127l-4.31 10.135c-.014.031-.037.047-.068.047a23.06 23.06 0 0 1-3.395-.027.014.014 0 0 1-.006-.005.014.014 0 0 1-.002-.008c0-.002 0-.005.002-.007a645.348 645.348 0 0 0 2.29-5.09.542.542 0 0 0 .004-.436l-2.42-5.709 3.264-.306ZM2.886 10.175c.26 2.253 1.164 4.005 2.712 5.255C10.024 19 16.335 16.537 17.4 10.828c1.31.279 2.182.133 2.615-.436a9.877 9.877 0 0 1-1.378 4.526A9.853 9.853 0 0 1 3.72 17.302a9.854 9.854 0 0 1-3.375-6.896c.969.147 1.816.07 2.542-.23Z"/><path d="M7.02 10.778a13.22 13.22 0 0 0 3.624.054c.108-.015.24.016.393.093a.685.685 0 0 0 .34.073l1.936-.112A3.293 3.293 0 0 1 8.6 12.757a3.292 3.292 0 0 1-1.58-1.98ZM51.2 11.582v4.775c0 .183-.092.274-.274.274l-2.651-.014c-.173-.003-.26-.09-.26-.264l-.018-4.746 3.203-.025ZM56.537 11.95l.008 4.346c0 .194-.098.293-.293.295H53.58a.287.287 0 0 1-.201-.082.28.28 0 0 1-.084-.199l.007-4.436 3.235.076ZM78.025 12.451a4.482 4.482 0 0 0 1.688.123.596.596 0 0 1 .364.065c.097.057.201.08.314.068l1.014-.108c-.426 2.21-1.84 3.873-4.162 4.111-1.412.147-2.553-.282-3.423-1.287-.156-.18-.234-.152-.234.086v5.944c0 .12-.06.18-.177.18H70.52c-.118 0-.177-.06-.177-.18l.011-8.627c1.25.173 2.407.102 3.47-.213.418.851 1.089 1.29 2.012 1.317 1.048.031 1.778-.462 2.19-1.479ZM86.111 13.115l.029 3.228a.238.238 0 0 1-.238.238l-2.745.014c-.197 0-.294-.099-.292-.296l.015-3.278 3.231.094ZM108.234 14.337l-3.073 7.199a.127.127 0 0 1-.126.083l-3.271.01a.071.071 0 0 1-.058-.03.068.068 0 0 1-.01-.032.057.057 0 0 1 .006-.031l2.272-4.995a.445.445 0 0 0 .011-.364l-.645-1.674 2.845-.115a.132.132 0 0 1 .126.075c.029.065.08.094.152.087a.238.238 0 0 0 .115-.043c.205-.137.448-.176.729-.116.281.06.59.043.927-.054Z"/></g><defs><clipPath id="a"><path fill="#fff" transform="translate(.279 .001)" d="M0 0h111.443v22H0z"/></clipPath></defs></svg>
